; Generated with MatterSlice 1.0
; filamentDiameter = 1.74
; extrusionWidth = 0.75
; firstLayerExtrusionWidth = 0.825
; layerThickness = 0.3
; firstLayerThickness = 0.15
; automatic settings before start_gcode
G21 ; set units to millimeters
M107 ; fan off
M104 T0 S200 ; start heating extruder 1
M109 T0 S200 ; wait for extruder 1
T0 ; set the active extruder to 0
; settings from start_gcode
G28 ; home all axes
G1 Z5 F5000 ; lift nozzle
; automatic settings after start_gcode
T0 ; set the active extruder to 0
G90 ; use absolute coordinates
G92 E0 ; reset the expected extruder position
M82 ; use absolute distance for extrusion
; Layer count: 4
; RAFT BASE
; Layer Change GCode
; LAYER:-3
G0 F7800 X0.125 Y34.125 Z0.562
; TYPE:SUPPORT
G1 F1800 E0
G1 F1200 X91.875 Y34.125 E48.79064
G1 X91.875 Y125.875 E97.58128
G1 X0.125 Y125.875 E146.37192
G1 X0.125 Y34.125 E195.16257
G1 F1800 E194.66257
G0 F7800 X2.375 Y36.375
G1 F1800 E195.16257
G1 F1200 X89.625 Y36.375 E241.56021
G1 X89.625 Y123.625 E287.95785
G1 X2.375 Y123.625 E334.35549
G1 X2.375 Y36.375 E380.75313
G1 F1800 E380.25313
G0 F7800 X4.625 Y38.625
G1 F1800 E380.75313
G1 F1200 X87.375 Y38.625 E424.75776
G1 X87.375 Y121.375 E468.7624
G1 X4.625 Y121.375 E512.76704
G1 X4.625 Y38.625 E556.77168
G1 F1800 E556.27168
G0 F7800 X6.875 Y40.875
G1 F1800 E556.77168
G1 F1200 X85.125 Y40.875 E598.38332
G1 X85.125 Y119.125 E639.99495
G1 X6.875 Y119.125 E681.60659
G1 X6.875 Y40.875 E723.21823
G1 F1800 E722.71823
G0 F7800 X9.125 Y43.125
G1 F1800 E723.21823
G1 F1200 X82.875 Y43.125 E762.43686
G1 X82.875 Y116.875 E801.6555
G1 X9.125 Y116.875 E840.87414
G1 X9.125 Y43.125 E880.09277
G1 F1800 E879.59277
G0 F7800 X11.375 Y45.375
G1 F1800 E880.09277
G1 F1200 X80.625 Y45.375 E916.91841
G1 X80.625 Y114.625 E953.74404
G1 X11.375 Y114.625 E990.56967
G1 X11.375 Y45.375 E1027.39531
G1 F1800 E1026.89531
G0 F7800 X13.625 Y47.625
G1 F1800 E1027.39531
G1 F1200 X78.375 Y47.625 E1061.82794
G1 X78.375 Y112.375 E1096.26057
G1 X13.625 Y112.375 E1130.69321
G1 X13.625 Y47.625 E1165.12584
G1 F1800 E1164.62584
G0 F7800 X15.875 Y49.875
G1 F1800 E1165.12584
G1 F1200 X76.125 Y49.875 E1197.16547
G1 X76.125 Y110.125 E1229.2051
G1 X15.875 Y110.125 E1261.24473
G1 X15.875 Y49.875 E1293.28436
G1 F1800 E1292.78436
G0 F7800 X18.125 Y52.125
G1 F1800 E1293.28436
G1 F1200 X73.875 Y52.125 E1322.93099
G1 X73.875 Y107.875 E1352.57762
G1 X18.125 Y107.875 E1382.22425
G1 X18.125 Y52.125 E1411.87088
G1 F1800 E1411.37088
G0 F7800 X20.375 Y54.375
G1 F1800 E1411.87088
G1 F1200 X71.625 Y54.375 E1439.12451
G1 X71.625 Y105.625 E1466.37814
G1 X20.375 Y105.625 E1493.63177
G1 X20.375 Y54.375 E1520.88539
G1 F1800 E1520.38539
G0 F7800 X22.625 Y56.625
G1 F1800 E1520.88539
G1 F1200 X69.375 Y56.625 E1545.74602
G1 X69.375 Y103.375 E1570.60665
G1 X22.625 Y103.375 E1595.46727
G1 X22.625 Y56.625 E1620.3279
G1 F1800 E1619.8279
G0 F7800 X32 Y66
G1 F1800 E1620.3279
G1 F1200 X60 Y66 E1635.21769
G1 X60 Y94 E1650.10747
G1 X32 Y94 E1664.99726
G1 X32 Y66 E1679.88705
G1 F1800 E1679.38705
G0 F7800 X45 Y79
G1 F1800 E1679.88705
G1 F1200 X45 Y81 E1680.9506
G1 X47 Y81 E1682.01416
G1 X47 Y79 E1683.07772
G1 X45 Y79 E1684.14127
G0 F7800 X44.999 Y81
G1 F1200 X31.999 Y81 E1691.05439
G0 F7800 X31.999 Y78
G1 F1200 X59.999 Y78 E1705.94418
G0 F7800 X59.999 Y81
G1 F1200 X46.999 Y81 E1712.85729
G1 F1800 E1712.35729
G0 F7800 X59.999 Y84
G1 F1800 E1712.85729
G1 F1200 X31.999 Y84 E1727.74708
G0 F7800 X31.999 Y87
G1 F1200 X59.999 Y87 E1742.63686
G0 F7800 X59.999 Y90
G1 F1200 X31.999 Y90 E1757.52665
G0 F7800 X31.999 Y93
G1 F1200 X59.999 Y93 E1772.41644
G1 F1800 E1771.91644
G0 F7800 X59.999 Y75
G1 F1800 E1772.41644
G1 F1200 X31.999 Y75 E1787.30623
G0 F7800 X31.999 Y72
G1 F1200 X59.999 Y72 E1802.19601
G0 F7800 X59.999 Y69
G1 F1200 X31.999 Y69 E1817.0858
G0 F7800 X31.999 Y66
G1 F1200 X59.999 Y66 E1831.97559
G4 P0
M106 S255
; RAFT MIDDLE
; Layer Change GCode
; LAYER:-2
G0 F7800 X60 Y67.955 Z1.03
; TYPE:SUPPORT
G1 F1200 X58.044 Y65.999 E1832.33273
G0 F7800 X55.392 Y65.999
G1 F1200 X60 Y70.606 E1833.17401
G0 F7800 X60 Y73.258
G1 F1200 X52.74 Y65.999 E1834.49952
G0 F7800 X50.089 Y65.999
G1 F1200 X60 Y75.91 E1836.30917
G0 F7800 X60 Y78.561
G1 F1200 X47.437 Y65.999 E1838.60295
G0 F7800 X44.786 Y65.999
G1 F1200 X60 Y81.213 E1841.38087
G0 F7800 X60 Y83.864
G1 F1200 X42.134 Y65.999 E1844.64293
G0 F7800 X39.482 Y65.999
G1 F1200 X60 Y86.516 E1848.38922
G0 F7800 X60 Y89.168
G1 F1200 X36.831 Y65.999 E1852.61964
G0 F7800 X34.179 Y65.999
G1 F1200 X60 Y91.819 E1857.33419
G0 F7800 X59.527 Y93.999
G1 F1200 X46.527 Y80.999 E1859.70786
G0 F7800 X45 Y79.471
G1 F1200 X32 Y66.471 E1862.08153
G0 F7800 X32 Y69.123
G1 F1200 X56.876 Y93.999 E1866.62363
G0 F7800 X54.224 Y93.999
G1 F1200 X32 Y71.774 E1870.68159
G0 F7800 X32 Y74.426
G1 F1200 X51.572 Y93.999 E1874.25533
G0 F7800 X48.921 Y93.999
G1 F1200 X32 Y77.078 E1877.34493
G0 F7800 X32 Y79.729
G1 F1200 X46.269 Y93.999 E1879.9504
G0 F7800 X43.617 Y93.999
G1 F1200 X32 Y82.381 E1882.07163
G0 F7800 X32 Y85.033
G1 F1200 X40.966 Y93.999 E1883.70873
G0 F7800 X38.314 Y93.999
G1 F1200 X32 Y87.684 E1884.86169
G0 F7800 X32 Y90.336
G1 F1200 X35.662 Y93.999 E1885.53043
G0 F7800 X33.011 Y93.999
G1 F1200 X32 Y92.988 E1885.71503
; RAFT SURFACE
; Layer Change GCode
; LAYER:-1
G0 F7800 X32.25 Y94 Z1.498
; TYPE:SUPPORT
G1 F1200 X32.25 Y66 E1889.84814
G0 F7800 X33 Y66
G1 F1200 X33 Y94 E1893.98124
G0 F7800 X33.75 Y94
G1 F1200 X33.75 Y66 E1898.11435
G0 F7800 X34.5 Y66
G1 F1200 X34.5 Y94 E1902.24746
G0 F7800 X35.25 Y94
G1 F1200 X35.25 Y66 E1906.38057
G0 F7800 X36 Y66
G1 F1200 X36 Y94 E1910.51368
G0 F7800 X36.75 Y94
G1 F1200 X36.75 Y66 E1914.64678
G0 F7800 X37.5 Y66
G1 F1200 X37.5 Y94 E1918.77989
G0 F7800 X38.25 Y94
G1 F1200 X38.25 Y66 E1922.913
G0 F7800 X39 Y66
G1 F1200 X39 Y94 E1927.04611
G0 F7800 X39.75 Y94
G1 F1200 X39.75 Y66 E1931.17922
G0 F7800 X40.5 Y66
G1 F1200 X40.5 Y94 E1935.31233
G0 F7800 X41.25 Y94
G1 F1200 X41.25 Y66 E1939.44543
G0 F7800 X42 Y66
G1 F1200 X42 Y94 E1943.57854
G0 F7800 X42.75 Y94
G1 F1200 X42.75 Y66 E1947.71165
G0 F7800 X43.5 Y66
G1 F1200 X43.5 Y94 E1951.84476
G0 F7800 X44.25 Y94
G1 F1200 X44.25 Y66 E1955.97787
G0 F7800 X45 Y66
G1 F1200 X45 Y79 E1957.89681
G0 F7800 X45.75 Y79
G1 F1200 X45.75 Y66 E1959.81575
G0 F7800 X46.5 Y66
G1 F1200 X46.5 Y79 E1961.7347
G0 F7800 X46.5 Y81
G1 F1200 X46.5 Y94 E1963.65364
G0 F7800 X45.75 Y94
G1 F1200 X45.75 Y81 E1965.57258
G0 F7800 X45 Y81
G1 F1200 X45 Y94 E1967.49152
G0 F7800 X47.25 Y94
G1 F1200 X47.25 Y66 E1971.62463
G0 F7800 X48 Y66
G1 F1200 X48 Y94 E1975.75774
G0 F7800 X48.75 Y94
G1 F1200 X48.75 Y66 E1979.89085
G0 F7800 X49.5 Y66
G1 F1200 X49.5 Y94 E1984.02396
G0 F7800 X50.25 Y94
G1 F1200 X50.25 Y66 E1988.15706
G0 F7800 X51 Y66
G1 F1200 X51 Y94 E1992.29017
G0 F7800 X51.75 Y94
G1 F1200 X51.75 Y66 E1996.42328
G0 F7800 X52.5 Y66
G1 F1200 X52.5 Y94 E2000.55639
G0 F7800 X53.25 Y94
G1 F1200 X53.25 Y66 E2004.6895
G0 F7800 X54 Y66
G1 F1200 X54 Y94 E2008.82261
G0 F7800 X54.75 Y94
G1 F1200 X54.75 Y66 E2012.95571
G0 F7800 X55.5 Y66
G1 F1200 X55.5 Y94 E2017.08882
G0 F7800 X56.25 Y94
G1 F1200 X56.25 Y66 E2021.22193
G0 F7800 X57 Y66
G1 F1200 X57 Y94 E2025.35504
G0 F7800 X57.75 Y94
G1 F1200 X57.75 Y66 E2029.48815
G0 F7800 X58.5 Y66
G1 F1200 X58.5 Y94 E2033.62125
G0 F7800 X59.25 Y94
G1 F1200 X59.25 Y66 E2037.75436
; RAFT SURFACE
; Layer Change GCode
; LAYER:-1
G0 F7800 X59.999 Y66.749 Z1.966
; TYPE:SUPPORT
G1 F1200 X31.999 Y66.75 E2041.88747
G0 F7800 X31.999 Y67.5
G1 F1200 X59.999 Y67.499 E2046.02058
G0 F7800 X59.999 Y68.249
G1 F1200 X31.999 Y68.25 E2050.15369
G0 F7800 X31.999 Y69
G1 F1200 X59.999 Y68.999 E2054.2868
G0 F7800 X59.999 Y69.749
G1 F1200 X31.999 Y69.75 E2058.4199
G0 F7800 X31.999 Y70.5
G1 F1200 X59.999 Y70.499 E2062.55301
G0 F7800 X59.999 Y71.249
G1 F1200 X31.999 Y71.25 E2066.68612
G0 F7800 X31.999 Y72
G1 F1200 X59.999 Y71.999 E2070.81923
G0 F7800 X59.999 Y72.749
G1 F1200 X31.999 Y72.75 E2074.95234
G0 F7800 X31.999 Y73.5
G1 F1200 X59.999 Y73.499 E2079.08544
G0 F7800 X59.999 Y74.249
G1 F1200 X31.999 Y74.25 E2083.21855
G0 F7800 X31.999 Y75
G1 F1200 X59.999 Y74.999 E2087.35166
G0 F7800 X59.999 Y75.749
G1 F1200 X31.999 Y75.75 E2091.48477
G0 F7800 X31.999 Y76.5
G1 F1200 X59.999 Y76.499 E2095.61788
G0 F7800 X59.999 Y77.249
G1 F1200 X31.999 Y77.25 E2099.75099
G0 F7800 X31.999 Y78
G1 F1200 X59.999 Y77.999 E2103.88409
G0 F7800 X59.999 Y78.749
G1 F1200 X31.999 Y78.75 E2108.0172
G0 F7800 X31.999 Y79.5
G1 F1200 X44.999 Y79.499 E2109.93614
G0 F7800 X44.999 Y80.249
G1 F1200 X31.999 Y80.25 E2111.85509
G0 F7800 X31.999 Y81
G1 F1200 X59.999 Y80.999 E2115.9882
G0 F7800 X59.999 Y81.749
G1 F1200 X31.999 Y81.75 E2120.1213
G0 F7800 X31.999 Y82.5
G1 F1200 X59.999 Y82.499 E2124.25441
G0 F7800 X59.999 Y83.249
G1 F1200 X31.999 Y83.25 E2128.38752
G0 F7800 X31.999 Y84
G1 F1200 X59.999 Y83.999 E2132.52063
G0 F7800 X59.999 Y84.749
G1 F1200 X31.999 Y84.75 E2136.65374
G0 F7800 X31.999 Y85.5
G1 F1200 X59.999 Y85.499 E2140.78684
G0 F7800 X59.999 Y86.249
G1 F1200 X31.999 Y86.25 E2144.91995
G0 F7800 X31.999 Y87
G1 F1200 X59.999 Y86.999 E2149.05306
G0 F7800 X59.999 Y87.749
G1 F1200 X31.999 Y87.75 E2153.18617
G0 F7800 X31.999 Y88.5
G1 F1200 X59.999 Y88.499 E2157.31928
G0 F7800 X59.999 Y89.249
G1 F1200 X31.999 Y89.25 E2161.45239
G0 F7800 X31.999 Y90
G1 F1200 X59.999 Y89.999 E2165.58549
G0 F7800 X59.999 Y90.749
G1 F1200 X31.999 Y90.75 E2169.7186
G0 F7800 X31.999 Y91.5
G1 F1200 X59.999 Y91.499 E2173.85171
G0 F7800 X59.999 Y92.249
G1 F1200 X31.999 Y92.25 E2177.98482
G0 F7800 X31.999 Y93
G1 F1200 X59.999 Y92.999 E2182.11793
G0 F7800 X59.999 Y93.749
G1 F1200 X31.999 Y93.75 E2186.25103
G1 F1800 E2185.75103
G0 F7800 X46.999 Y80.249
G1 F1800 E2186.25103
G1 F1200 X59.999 Y80.249 E2188.16998
G0 F7800 X59.999 Y79.499
G1 F1200 X46.999 Y79.499 E2190.08892
; Layer Change GCode
; LAYER:0
G4 P0
M107
G1 F1800 E2189.58892
G0 F7800 X46.999 Y79.499 Z2.491
G0 X48.75 Y77.25
G0 X51 Y75
G0 X52.237 Y75
G0 X52.237 Y86.237
G0 X39.763 Y86.237
G0 X39.763 Y85.412
G0 X40.588 Y85.412
; TYPE:WALL-OUTER
G1 F1800 E2190.08892
G1 F720 X51.412 Y85.412 E2190.65223
G1 X51.412 Y74.588 E2191.21553
G1 X40.588 Y74.588 E2191.77884
G1 X40.588 Y85.412 E2192.34215
G0 F7800 X39.763 Y85.412
G0 X39.764 Y86.236
; TYPE:WALL-INNER
G1 F720 X52.236 Y86.236 E2192.99122
G1 X52.236 Y73.764 E2193.64029
G1 X39.764 Y73.764 E2194.28936
G1 X39.764 Y86.236 E2194.93843
G0 F7800 X39.763 Y86.237
G0 X38.94 Y87.06
G1 F720 X53.06 Y87.06 E2195.67327
G1 X53.06 Y72.94 E2196.40811
G1 X38.94 Y72.94 E2197.14295
G1 X38.94 Y87.06 E2197.87779
G1 F1800 E2197.37779
G0 F7800 X37.237 Y88.763
G0 X36.412 Y89.588
; TYPE:WALL-OUTER
G1 F1800 E2197.87779
G1 F720 X36.412 Y70.412 E2198.87575
G1 X55.588 Y70.412 E2199.87371
G1 X55.588 Y89.588 E2200.87168
G1 X36.412 Y89.588 E2201.86964
G0 F7800 X37.236 Y88.764
; TYPE:WALL-INNER
G1 F720 X37.236 Y71.236 E2202.78184
G1 X54.764 Y71.236 E2203.69404
G1 X54.764 Y88.764 E2204.60624
G1 X37.236 Y88.764 E2205.51843
G0 F7800 X37.237 Y88.763
G0 X38.06 Y87.94
G1 F720 X38.06 Y72.06 E2206.34487
G1 X53.94 Y72.06 E2207.1713
G1 X53.94 Y87.94 E2207.99773
G1 X38.06 Y87.94 E2208.82416
; Layer Change GCode
; LAYER:1
G4 P0
M106 S89
G0 F7800 X38.06 Y87.94 Z2.416
G0 X37.125 Y88.875
G0 X36.375 Y89.625
G0 X37.125 Y88.875
G0 X37.875 Y88.125
; TYPE:WALL-INNER
G1 F840 X37.875 Y71.875 E2210.36178
G1 X54.125 Y71.875 E2211.89939
G1 X54.125 Y88.125 E2213.43701
G1 X37.875 Y88.125 E2214.97462
G0 F7800 X37.125 Y88.875
G1 F840 X37.125 Y71.125 E2216.65417
G1 X54.875 Y71.125 E2218.33372
G1 X54.875 Y88.875 E2220.01327
G1 X37.125 Y88.875 E2221.69282
G0 F7800 X36.375 Y89.625
; TYPE:WALL-OUTER
G1 F840 X36.375 Y70.375 E2223.5143
G1 X55.625 Y70.375 E2225.33578
G1 X55.625 Y89.625 E2227.15726
G1 X36.375 Y89.625 E2228.97874
G1 F1800 E2228.47874
G0 F7800 X37.125 Y88.875
G0 X39.875 Y85.375
G0 X40.625 Y85.375
G0 X39.875 Y85.375
G0 X39.125 Y86.875
; TYPE:WALL-INNER
G1 F1800 E2228.97874
G1 F840 X52.875 Y86.875 E2230.2798
G1 X52.875 Y73.125 E2231.58086
G1 X39.125 Y73.125 E2232.88192
G1 X39.125 Y86.875 E2234.18298
G0 F7800 X39.875 Y86.125
G1 F840 X52.125 Y86.125 E2235.3421
G1 X52.125 Y73.875 E2236.50123
G1 X39.875 Y73.875 E2237.66035
G1 X39.875 Y86.125 E2238.81948
G0 F7800 X39.875 Y85.375
G0 X40.625 Y85.375
; TYPE:WALL-OUTER
G1 F840 X51.375 Y85.375 E2239.83667
G1 X51.375 Y74.625 E2240.85386
G1 X40.625 Y74.625 E2241.87105
G1 X40.625 Y85.375 E2242.88824
G1 F1800 E2242.38824
G0 F7800 X39.875 Y85.375
G0 X38.5 Y87.25
; TYPE:FILL
G1 F1800 E2242.88824
G1 F840 X38.5 Y72.75 E2243.80293
G0 F7800 X38.75 Y72.5
G1 F840 X53.25 Y72.5 E2244.71761
G0 F7800 X53.5 Y72.75
G1 F840 X53.5 Y87.25 E2245.63229
G0 F7800 X53.25 Y87.5
G1 F840 X38.75 Y87.5 E2246.54698
; Layer Change GCode
; LAYER:2
G1 F1800 E2246.04698
G0 F7800 X38.75 Y87.5 Z2.716
G0 X39.875 Y85.375
G0 X40.625 Y85.375
G0 X39.875 Y85.375
G0 X39.125 Y86.875
; TYPE:WALL-INNER
G1 F1800 E2246.54698
G1 F840 X52.875 Y86.875 E2247.84803
G1 X52.875 Y73.125 E2249.14909
G1 X39.125 Y73.125 E2250.45015
G1 X39.125 Y86.875 E2251.75121
G0 F7800 X39.875 Y86.125
G1 F840 X52.125 Y86.125 E2252.91034
G1 X52.125 Y73.875 E2254.06946
G1 X39.875 Y73.875 E2255.22858
G1 X39.875 Y86.125 E2256.38771
G0 F7800 X39.875 Y85.375
G0 X40.625 Y85.375
; TYPE:WALL-OUTER
G1 F840 X51.375 Y85.375 E2257.4049
G1 X51.375 Y74.625 E2258.42209
G1 X40.625 Y74.625 E2259.43928
G1 X40.625 Y85.375 E2260.45647
G1 F1800 E2259.95647
G0 F7800 X39.875 Y85.375
G0 X37.125 Y88.875
G0 X36.375 Y89.625
G0 X37.125 Y88.875
G0 X37.875 Y88.125
; TYPE:WALL-INNER
G1 F1800 E2260.45647
G1 F840 X37.875 Y71.875 E2261.99409
G1 X54.125 Y71.875 E2263.5317
G1 X54.125 Y88.125 E2265.06932
G1 X37.875 Y88.125 E2266.60693
G0 F7800 X37.125 Y88.875
G1 F840 X37.125 Y71.125 E2268.28648
G1 X54.875 Y71.125 E2269.96603
G1 X54.875 Y88.875 E2271.64558
G1 X37.125 Y88.875 E2273.32513
G0 F7800 X36.375 Y89.625
; TYPE:WALL-OUTER
G1 F840 X36.375 Y70.375 E2275.14661
G1 X55.625 Y70.375 E2276.96809
G1 X55.625 Y89.625 E2278.78957
G1 X36.375 Y89.625 E2280.61105
G1 F1800 E2280.11105
G0 F7800 X37.125 Y88.875
G0 X38.5 Y87.25
; TYPE:FILL
G1 F1800 E2280.61105
G1 F840 X38.5 Y72.75 E2281.52574
G0 F7800 X38.75 Y72.5
G1 F840 X53.25 Y72.5 E2282.44042
G0 F7800 X53.5 Y72.75
G1 F840 X53.5 Y87.25 E2283.35511
G0 F7800 X53.25 Y87.5
G1 F840 X38.75 Y87.5 E2284.26979
; Layer Change GCode
; LAYER:3
G1 F1800 E2283.76979
G0 F7800 X38.75 Y87.5 Z3.016
G0 X39.875 Y85.375
G0 X40.625 Y85.375
G0 X39.875 Y85.375
G0 X39.125 Y86.875
; TYPE:WALL-INNER
G1 F1800 E2284.26979
G1 F840 X52.875 Y86.875 E2285.57085
G1 X52.875 Y73.125 E2286.87191
G1 X39.125 Y73.125 E2288.17296
G1 X39.125 Y86.875 E2289.47402
G0 F7800 X39.875 Y86.125
G1 F840 X52.125 Y86.125 E2290.63315
G1 X52.125 Y73.875 E2291.79227
G1 X39.875 Y73.875 E2292.9514
G1 X39.875 Y86.125 E2294.11052
G0 F7800 X39.875 Y85.375
G0 X40.625 Y85.375
; TYPE:WALL-OUTER
G1 F840 X51.375 Y85.375 E2295.12771
G1 X51.375 Y74.625 E2296.1449
G1 X40.625 Y74.625 E2297.1621
G1 X40.625 Y85.375 E2298.17929
G1 F1800 E2297.67929
G0 F7800 X39.875 Y85.375
G0 X37.125 Y88.875
G0 X36.375 Y89.625
G0 X37.125 Y88.875
G0 X37.875 Y88.125
; TYPE:WALL-INNER
G1 F1800 E2298.17929
G1 F840 X37.875 Y71.875 E2299.7169
G1 X54.125 Y71.875 E2301.25452
G1 X54.125 Y88.125 E2302.79213
G1 X37.875 Y88.125 E2304.32975
G0 F7800 X37.125 Y88.875
G1 F840 X37.125 Y71.125 E2306.00929
G1 X54.875 Y71.125 E2307.68884
G1 X54.875 Y88.875 E2309.36839
G1 X37.125 Y88.875 E2311.04794
G0 F7800 X36.375 Y89.625
; TYPE:WALL-OUTER
G1 F840 X36.375 Y70.375 E2312.86942
G1 X55.625 Y70.375 E2314.6909
G1 X55.625 Y89.625 E2316.51238
G1 X36.375 Y89.625 E2318.33387
G1 F1800 E2317.83387
G0 F7800 X37.125 Y88.875
G0 X38.5 Y87.25
; TYPE:FILL
G1 F1800 E2318.33387
G1 F840 X38.5 Y72.75 E2319.24855
G0 F7800 X38.75 Y72.5
G1 F840 X53.25 Y72.5 E2320.16323
G0 F7800 X53.5 Y72.75
G1 F840 X53.5 Y87.25 E2321.07792
G0 F7800 X53.25 Y87.5
G1 F840 X38.75 Y87.5 E2321.9926
G4 P0
M107
M104 S0 ; turn off temperature
G91 ;  Set distance mode to relative value mode
G1 Z5 F5000 ; lift nozzle
G1 E-15 F500 ; Retract Extruder
G90;
G28 X0  ; home X axis
G1 Y225 F3000; bring plate to front
M84;
; filament used = 2322.0
; filament used extruder 1 (mm) = 2322.0
; filament used extruder 2 (mm) = 0.0
; total print time (s) = 425
; MatterControl Version 0.0.0 Build Test Build : GCode settings used
; Date 02/27/2017 00:00:00 Time 15:46
; numberOfBottomLayers = 3
; numberOfPerimeters = 3
; raftExtraDistanceAroundPart = 4
; numberOfSkirtLoops = 1
; supportInterfaceLayers = 3
; numberOfTopLayers = 3
; numberOfBrimLoops = 0
; outsidePerimeterExtrusionWidth = 0.75
; outsidePerimeterSpeed = 40
; firstLayerSpeed = 20
; raftPrintSpeed = 20
; topInfillSpeed = 50
; firstLayerExtrusionWidth = 0.825
; firstLayerThickness = 0.15
; extruderOffsets = [[0,0],[0,0],[0,0],[0,0],[0,0],[0,0],[0,0],[0,0],[0,0],[0,0],[0,0],[0,0],[0,0],[0,0],[0,0],[0,0]]
; beforeToolchangeCode = 
; endCode = M104 S0 ; turn off temperature\nG91 ;  Set distance mode to relative value mode\nG1 Z5 F5000 ; lift nozzle\nG1 E-15 F500 ; Retract Extruder\nG90;\nG28 X0  ; home X axis\nG1 Y225 F3000; bring plate to front\nM84;
; toolChangeCode = 
; minimumTravelToCauseRetraction = 3
; retractionOnTravel = 0.5
; retractionZHop = 0
; unretractExtraExtrusion = 0
; retractionSpeed = 30
; bridgeFanSpeedPercent = 100
; bridgeSpeed = 40
; firstLayerToAllowFan = 1
; extrusionMultiplier = 1
; infillStartingAngle = 90
; infillExtendIntoPerimeter = 0
; infillSpeed = 40
; infillType = LINES
; layerChangeCode = ; LAYER:[layer_num]
; fanSpeedMaxPercent = 100
; minimumExtrusionBeforeRetraction = 0.003
; fanSpeedMinPercent = 35
; minimumPrintingSpeed = 3
; insidePerimetersSpeed = 40
; raftAirGap = 0.375
; raftFanSpeedPercent = 100
; retractionOnExtruderSwitch = 10
; unretractExtraOnExtruderSwitch = 0
; skirtDistanceFromObject = 6
; minimumLayerTimeSeconds = 30
; supportAirGap = .3
; supportInfillStartingAngle = 45
; supportPercent = 50
; supportLineSpacing = 2.5
; supportMaterialSpeed = 60
; supportXYDistanceFromObject = 0.7
; supportType = LINES
; travelSpeed = 130
; wipeShieldDistanceFromObject = 0
; wipeTowerSize = 0
; zOffset = 0
; bottomClipAmount = 0
; filamentDiameter = 1.74
; layerThickness = 0.3
; extrusionWidth = 0.75
; avoidCrossingPerimeters = True
; enableRaft = True
; outsidePerimetersFirst = False
; outputOnlyFirstLayer = False
; retractWhenChangingIslands = True
; generateSupport = False
; generateInternalSupport = True
; generateSupportPerimeter = True
; wipeAfterRetraction = False
; centerObjectInXy = False
; expandThinWalls = True
; MergeOverlappingLines = True
; fillThinGaps = True
; continuousSpiralOuterPerimeter = False
; positionToPlaceObjectCenter = [46,80]
; startCode = ; automatic settings before start_gcode\nG21 ; set units to millimeters\nM107 ; fan off\nM104 T0 S200 ; start heating extruder 1\nM109 T0 S200 ; wait for extruder 1\nT0 ; set the active extruder to 0\n; settings from start_gcode\nG28 ; home all axes\nG1 Z5 F5000 ; lift nozzle\n; automatic settings after start_gcode\nT0 ; set the active extruder to 0\nG90 ; use absolute coordinates\nG92 E0 ; reset the expected extruder position\nM82 ; use absolute distance for extrusion
; infillPercent = 10
; perimeterStartEndOverlapRatio = 1
; skirtMinLength = 2818.21812820435
; supportExtrusionPercent = 100
; raftExtruder = -1
; supportExtruder = 0
; supportInterfaceExtruder = 0
